images_elementary_svg/cmd/sc_splitwindow.svg

<svg height="16" width="16" xmlns="http://www.w3.org/2000/svg" xmlns:xlink="http://www.w3.org/1999/xlink"><linearGradient id="a" gradientUnits="userSpaceOnUse" x1="8.0002" x2="8.0002" y1="3.000209" y2="13.6489"><stop offset="0" stop-color="#fff"/><stop offset=".063" stop-color="#fff" stop-opacity=".235"/><stop offset=".951" stop-color="#fff" stop-opacity=".157"/><stop offset="1" stop-color="#fff" stop-opacity=".392"/></linearGradient><radialGradient id="b" cx="9.072" cy="9.514" fx="8.542" gradientTransform="matrix(0 1.2626 -1.5783 0 23.016 -11.455)" gradientUnits="userSpaceOnUse" r="12.672"><stop offset="0" stop-color="#fafafa"/><stop offset="1" stop-color="#e1e1e1"/></radialGradient><linearGradient id="c" gradientUnits="userSpaceOnUse" x1="9.5" x2="9.5" y1="3" y2="4.5"><stop offset="0" stop-color="#e5e5e5"/><stop offset="1" stop-color="#d4d4d4"/></linearGradient><radialGradient id="d" cx="64.575" cy="48.605" gradientTransform="matrix(0 .3853 -.4196 0 32.39 -16.793)" gradientUnits="userSpaceOnUse" r="31"><stop offset="0" stop-color="#cdf87e"/><stop offset=".262" stop-color="#a2e34f"/><stop offset=".661" stop-color="#68b723"/><stop offset="1" stop-color="#1d7e0d"/></radialGradient><clipPath id="e"><path d="m1 1h5v10h-5z"/></clipPath><clipPath id="f"><path d="m9 1h6v10h-6z"/></clipPath><g clip-path="url(#f)" transform="translate(-9 5)"><rect fill="url(#b)" height="12" rx=".5" width="12" x="2" y="2"/><path d="m2.5 1.5c-.554 0-1 .446-1 1v3.5h13v-3.5c0-.554-.446-1-1-1z" fill="url(#c)"/><g fill="none"><rect height="13" opacity=".3" rx="1" stroke="#0e141f" stroke-linecap="round" stroke-linejoin="round" width="13" x="1.5" y="1.5"/><path d="m2.5 2.5h11v11h-11z" opacity=".7" stroke="url(#a)" stroke-linecap="round" stroke-linejoin="round"/><path d="m2 5.5h12" opacity=".2" stroke="#000"/></g></g><g clip-path="url(#e)" transform="translate(10 5)"><rect fill="url(#b)" height="12" rx=".5" width="12" x="2" y="2"/><path d="m2.5 1.5c-.554 0-1 .446-1 1v3.5h13v-3.5c0-.554-.446-1-1-1z" fill="url(#c)"/><g fill="none"><rect height="13" opacity=".3" rx="1" stroke="#0e141f" stroke-linecap="round" stroke-linejoin="round" width="13" x="1.5" y="1.5"/><path d="m2.5 2.5h11v11h-11z" opacity=".7" stroke="url(#a)" stroke-linecap="round" stroke-linejoin="round"/><path d="m2 5.5h12" opacity=".2" stroke="#000"/></g></g><path d="m9.5 8.536v2h-2v-2z" fill="#9cde4a" stroke="#0f5a00" stroke-linecap="round" stroke-linejoin="round" stroke-opacity=".434"/><g fill="#9cde4a" stroke="#5ca12a" stroke-linecap="round" stroke-linejoin="round" stroke-width=".727"><path d="m11.483 11.504v-2.007l2.017-.024v2.007h2.007v2.02h-2.007v2.007l-2.017.024v-2.006h-2.007v-2.02z" fill="url(#d)" stroke="none" transform="translate(-3.992 -8.973)"/><path d="m7.49 2.53v-2.005l2.02-.025v2.007h2.007v2.02h-2.009v2.007l-2.017.024v-2.008h-2.006v-2.02z" fill="none" opacity=".5" stroke="#0f5a00" stroke-opacity=".93" stroke-width="1"/><g fill="#fff" stroke="none"><path d="m7.99 1.034h.97v.952h-.97z" opacity=".5"/><path d="m7.98 5.027h1.004v1.036h-1.004z" opacity=".2"/><path d="m5.967 3.046h2.013v.45h-2.014zm3.041-.012h1.988v.473h-1.988z" opacity=".4"/></g></g><path d="m9.008 9.02v1h-1v-1z" fill="#fff" opacity=".4"/><g fill="#9cde4a" stroke="#5ca12a" stroke-linecap="round" stroke-linejoin="round" stroke-width=".727"><path d="m9.5 12.536v2h-2v-2z" stroke="#0f5a00" stroke-opacity=".434" stroke-width="1"/><path d="m9.008 13.02v1h-1v-1z" fill="#fff" opacity=".4" stroke="none"/></g></svg>

<svg xmlns="http://www.w3.org/2000/svg" xmlns:xlink="http://www.w3.org/1999/xlink" height="16" width="16"><defs><linearGradient gradientTransform="translate(.865 .865) scale(.2973)" gradientUnits="userSpaceOnUse" xlink:href="#a" id="h" y2="43" x2="24" y1="7.182" x1="24"/><linearGradient id="a"><stop offset="0" stop-color="#fff"/><stop offset=".063" stop-color="#fff" stop-opacity=".235"/><stop offset=".951" stop-color="#fff" stop-opacity=".157"/><stop offset="1" stop-color="#fff" stop-opacity=".392"/></linearGradient><linearGradient id="b"><stop offset="0" stop-color="#cdf87e"/><stop offset=".262" stop-color="#a2e34f"/><stop offset=".661" stop-color="#68b723"/><stop offset="1" stop-color="#1d7e0d"/></linearGradient><radialGradient r="12.672" fy="9.514" fx="8.542" cy="9.514" cx="9.072" gradientTransform="matrix(0 1.2626 -1.5783 0 23.016 -11.455)" gradientUnits="userSpaceOnUse" id="f" xlink:href="#c"/><linearGradient id="c"><stop offset="0" stop-color="#fafafa"/><stop offset="1" stop-color="#e1e1e1"/></linearGradient><linearGradient y2="18" x2="15" y1="16.5" x1="15" gradientUnits="userSpaceOnUse" id="g" xlink:href="#d" gradientTransform="translate(-5.5 -13.5)"/><linearGradient x1="83.24" y1="42.457" x2="83.24" y2="57.61" id="d" gradientUnits="userSpaceOnUse" gradientTransform="matrix(.404 0 0 .4257 4.55 -4.793)"><stop offset="0" stop-color="#e5e5e5"/><stop offset="1" stop-color="#d4d4d4"/></linearGradient><radialGradient xlink:href="#c" id="j" gradientUnits="userSpaceOnUse" gradientTransform="matrix(0 1.2626 -1.5783 0 23.016 -11.455)" cx="9.072" cy="9.514" fx="8.542" fy="9.514" r="12.672"/><linearGradient xlink:href="#d" id="k" gradientUnits="userSpaceOnUse" gradientTransform="translate(-5.5 -13.5)" x1="15" y1="16.5" x2="15" y2="18"/><linearGradient xlink:href="#a" id="l" gradientUnits="userSpaceOnUse" gradientTransform="translate(.865 .865) scale(.2973)" x1="24" y1="7.182" x2="24" y2="43"/><radialGradient id="m" gradientUnits="userSpaceOnUse" cy="48.605" cx="64.575" gradientTransform="matrix(0 .3853 -.4196 0 32.39 -16.793)" r="31"><stop stop-color="#cdf87e" offset="0"/><stop stop-color="#a2e34f" offset=".262"/><stop stop-color="#68b723" offset=".661"/><stop stop-color="#1d7e0d" offset="1"/></radialGradient><clipPath id="i"><path fill="#7a36b1" stroke-width=".913" stroke-opacity=".49" d="M1 1h5v10H1z"/></clipPath><clipPath id="e"><path fill="#7a36b1" stroke-opacity=".49" d="M9 1h6v10H9z"/></clipPath></defs><g transform="translate(-9 5)" clip-path="url(#e)"><rect overflow="visible" width="12" height="12" rx=".5" ry=".5" x="2" y="2" style="isolation:auto;mix-blend-mode:normal" color="#000" solid-color="#000000" fill="url(#f)"/><path overflow="visible" style="isolation:auto;mix-blend-mode:normal" d="M2.5 1.5c-.554 0-1 .446-1 1V6h13V2.5c0-.554-.446-1-1-1z" color="#000" solid-color="#000000" fill="url(#g)"/><rect overflow="visible" width="13" height="13" rx="1" ry="1" x="1.5" y="1.5" color="#000" opacity=".3" fill="none" stroke="#0e141f" stroke-linecap="round" stroke-linejoin="round"/><path d="M2.5 2.5h11v11h-11z" opacity=".7" fill="none" stroke="url(#h)" stroke-linecap="round" stroke-linejoin="round"/><path d="M2 5.5h12" opacity=".2" fill="none" stroke="#000"/></g><g transform="translate(10 5)" clip-path="url(#i)"><rect style="isolation:auto;mix-blend-mode:normal" y="2" x="2" ry=".5" rx=".5" height="12" width="12" overflow="visible" color="#000" solid-color="#000000" fill="url(#j)"/><path d="M2.5 1.5c-.554 0-1 .446-1 1V6h13V2.5c0-.554-.446-1-1-1z" style="isolation:auto;mix-blend-mode:normal" overflow="visible" color="#000" solid-color="#000000" fill="url(#k)"/><rect y="1.5" x="1.5" ry="1" rx="1" height="13" width="13" overflow="visible" color="#000" opacity=".3" fill="none" stroke="#0e141f" stroke-linecap="round" stroke-linejoin="round"/><path d="M2.5 2.5h11v11h-11z" opacity=".7" fill="none" stroke="url(#l)" stroke-linecap="round" stroke-linejoin="round"/><path d="M2 5.5h12" opacity=".2" fill="none" stroke="#000"/></g><path d="M9.5 8.536v2h-2v-2z" fill="#9cde4a" stroke="#0f5a00" stroke-linecap="round" stroke-linejoin="round" stroke-opacity=".434"/><g fill="#9cde4a" stroke="#5ca12a" stroke-width=".727" stroke-linecap="round" stroke-linejoin="round" color="#000"><path d="M11.483 11.504V9.497l2.017-.024v2.007h2.007v2.02H13.5v2.007l-2.017.024v-2.006H9.476v-2.02z" fill="url(#m)" stroke="none" transform="translate(-3.992 -8.973)"/><path d="M7.49 2.53V.525L9.51.5v2.007h2.007v2.02H9.508v2.007l-2.017.024V4.55H5.485V2.53z" style="isolation:auto;mix-blend-mode:normal" opacity=".5" solid-color="#000000" fill="none" stroke="#0f5a00" stroke-width="1" stroke-opacity=".93"/><g fill="#fff" stroke="none"><path style="isolation:auto;mix-blend-mode:normal" opacity=".5" solid-color="#000000" d="M7.99 1.034h.97v.952h-.97z"/><path style="isolation:auto;mix-blend-mode:normal" opacity=".2" solid-color="#000000" d="M7.98 5.027h1.004v1.036H7.98z"/><path style="isolation:auto;mix-blend-mode:normal" opacity=".4" solid-color="#000000" d="M5.967 3.046H7.98v.45H5.966zM9.008 3.034h1.988v.473H9.008z"/></g></g><path opacity=".4" fill="#fff" d="M9.008 9.02v1h-1v-1z"/><g fill="#9cde4a" stroke="#5ca12a" stroke-width=".727" stroke-linecap="round" stroke-linejoin="round"><path d="M9.5 12.536v2h-2v-2z" stroke="#0f5a00" stroke-width="1" stroke-opacity=".434"/><path opacity=".4" fill="#fff" stroke="none" d="M9.008 13.02v1h-1v-1z"/></g></svg>
